public/images/pfizer.svg

<svg width="94" height="39" viewBox="0 0 94 39" fill="none" xmlns="http://www.w3.org/2000/svg">
<path fill-rule="evenodd" clip-rule="evenodd" d="M1.18652 21.3829C2.30658 18.1727 8.67462 16.8196 17.9638 17.9397L19.765 11.3241C10.5697 10.1571 3.85839 11.4686 2.74015 15.6526L1.18652 21.3829ZM34.7394 14.5C33.6211 17.712 27.2549 19.0579 17.9638 17.9397L16.1645 24.5534C25.358 25.7222 32.0711 24.4089 33.1894 20.2249L34.7394 14.5018" fill="#343434"/>
<path fill-rule="evenodd" clip-rule="evenodd" d="M7.06855 7.53058C20.6393 8.5025 34.5026 15.2156 33.1893 20.2251L34.4051 15.7503C34.7935 14.3412 34.9886 13.6096 34.9886 13.0261C34.9886 7.91899 21.613 1.69366 8.86786 0.915039L7.06855 7.53058ZM28.8608 28.3491C15.2865 27.3754 1.42673 20.6605 2.73828 15.6528L1.52428 20.1276C1.13407 21.5385 0.938965 22.2683 0.938965 22.8518C0.938965 27.9589 14.3164 34.1861 27.0615 34.9629L28.8608 28.3491ZM78.3383 19.3435C79.3409 19.3435 79.8558 19.9903 79.8558 21.4174C79.8558 21.5529 79.8467 21.6938 79.8305 21.842H75.9808C76.3981 20.3407 77.2923 19.3435 78.3383 19.3435ZM78.36 26.7919C76.6438 26.8154 75.7278 25.7224 75.7278 23.7822C75.7278 23.6539 75.7315 23.5275 75.7387 23.4028H82.4861C82.6255 22.8859 82.7001 22.3538 82.7083 21.8185C82.7083 19.4555 81.2595 17.649 78.2931 17.649C75.2599 17.649 72.561 20.637 72.561 23.7822C72.561 26.7919 74.5247 28.6219 77.8018 28.6219C79.2524 28.6219 80.6796 28.1305 81.6822 27.3718L81.0589 25.8109C80.285 26.4138 79.3404 26.7571 78.36 26.7919ZM43.7937 20.7707H42.5724L44.2543 14.5707H45.5316C47.1448 14.5707 48.0517 15.6636 48.0517 17.1143C48.0517 19.4321 46.2325 20.7707 43.7919 20.7707H43.7937ZM51.6431 16.9788C51.6431 14.5255 49.7245 12.7424 46.825 12.7424H41.2067L36.9686 28.3527H40.513L42.0756 22.5989H45.1522C48.6749 22.5989 51.6431 20.3245 51.6431 16.9806V16.9788ZM56.2624 17.938L56.6598 16.4892C56.8604 15.7305 57.1964 14.437 57.6643 12.943C58.1538 11.4038 59.0463 10.4445 60.2512 10.4445C60.8293 10.4445 61.187 10.7119 61.187 11.1581C61.1653 11.6495 60.7643 11.9385 60.7643 12.7208C60.7643 13.6349 61.5447 14.3467 62.5473 14.3467C62.8417 14.3483 63.1334 14.292 63.406 14.1808C63.6785 14.0697 63.9265 13.9059 64.1357 13.6989C64.3449 13.4918 64.5113 13.2456 64.6253 12.9742C64.7393 12.7029 64.7987 12.4117 64.8001 12.1174C64.8001 10.2205 63.1724 8.97401 60.6974 8.97401C57.0627 8.97401 54.6763 11.2918 53.1822 16.7114L47.1159 38.7692H50.5483L55.7927 19.6561H59.3642L57.0157 28.3527H60.4518L63.2609 17.938H56.2624Z" fill="#343434"/>
<path fill-rule="evenodd" clip-rule="evenodd" d="M73.6556 17.9376H64.556L64.1098 19.6538H68.5142L61.6782 28.3523H71.3125L71.7587 26.6361H66.7998L73.6538 17.9376H73.6556ZM91.674 17.7588C90.4437 17.7588 89.1322 18.5537 88.1061 20.2066L88.7076 17.9376H85.2752L82.4624 28.3523H85.8985L87.1685 23.6698C87.6815 21.7512 88.9317 19.8779 89.7554 19.8779C90.6479 19.8779 90.3155 21.5507 91.851 21.5507C92.9675 21.5507 93.6359 20.5246 93.6359 19.5888C93.6359 18.4959 92.7669 17.7588 91.674 17.7588Z" fill="#343434"/>
</svg>

<svg width="94" height="39" fill="none" xmlns="http://www.w3.org/2000/svg"><path fill-rule="evenodd" clip-rule="evenodd" d="M1.187 21.383c1.12-3.21 7.488-4.563 16.777-3.443l1.801-6.616c-9.195-1.167-15.907.145-17.025 4.329l-1.553 5.73ZM34.739 14.5c-1.118 3.212-7.484 4.558-16.775 3.44l-1.8 6.613c9.194 1.17 15.907-.144 17.025-4.328l1.55-5.723" fill="#fff"/><path fill-rule="evenodd" clip-rule="evenodd" d="M7.069 7.53c13.57.972 27.434 7.686 26.12 12.695l1.216-4.475c.389-1.409.584-2.14.584-2.724C34.989 7.92 21.613 1.694 8.868.915l-1.8 6.616ZM28.86 28.35c-13.575-.975-27.434-7.69-26.123-12.697l-1.214 4.475c-.39 1.41-.585 2.14-.585 2.724 0 5.107 13.377 11.334 26.122 12.11l1.8-6.613Zm49.477-9.007c1.003 0 1.518.647 1.518 2.074 0 .136-.01.277-.025.425h-3.85c.417-1.501 1.311-2.498 2.357-2.498Zm.022 7.449c-1.716.023-2.632-1.07-2.632-3.01 0-.128.004-.255.01-.38h6.748c.14-.516.214-1.048.222-1.584 0-2.363-1.448-4.169-4.415-4.169-3.033 0-5.732 2.988-5.732 6.133 0 3.01 1.964 4.84 5.24 4.84 1.451 0 2.879-.491 3.881-1.25l-.623-1.561a4.66 4.66 0 0 1-2.699.98ZM43.794 20.77h-1.222l1.682-6.2h1.278c1.613 0 2.52 1.093 2.52 2.543 0 2.318-1.82 3.657-4.26 3.657h.002Zm7.85-3.792c0-2.454-1.92-4.237-4.819-4.237h-5.618l-4.238 15.61h3.544l1.563-5.753h3.076c3.523 0 6.491-2.274 6.491-5.618v-.002Zm4.618.959.398-1.449c.2-.759.536-2.052 1.004-3.546.49-1.54 1.382-2.498 2.587-2.498.578 0 .936.267.936.713-.022.492-.423.78-.423 1.563 0 .914.78 1.626 1.783 1.626a2.24 2.24 0 0 0 2.253-2.23c0-1.897-1.628-3.143-4.103-3.143-3.634 0-6.02 2.318-7.515 7.737L47.116 38.77h3.432l5.245-19.113h3.571l-2.348 8.697h3.436l2.809-10.415h-6.999Z" fill="#fff"/><path fill-rule="evenodd" clip-rule="evenodd" d="M73.656 17.938h-9.1l-.446 1.716h4.404l-6.836 8.698h9.635l.446-1.716h-4.96l6.855-8.698h.002Zm18.018-.18c-1.23 0-2.542.796-3.568 2.449l.602-2.27h-3.433l-2.813 10.415h3.436l1.27-4.682c.513-1.919 1.764-3.792 2.587-3.792.893 0 .56 1.673 2.096 1.673 1.117 0 1.785-1.026 1.785-1.962 0-1.093-.87-1.83-1.962-1.83Z" fill="#fff"/></svg>
